X:150
T: MEIN SCHATZ HAT MICH VERLASSEN
N: E0732
O: Europa, Mitteleuropa, Deutschland, Hessen, Dillenburg; Wetterau
R: Liebes - Lied, Leid, Klage
M: 6/8
L: 1/16
K: G
D2 | B4B2B2c2B2 | A4E2A4
G2 | F2e2d2c2A2d2 | B6z4
GB | d4d2d2e2d2 | d4c2A4
D2 | d4d2d2e2d2 | d4c2A4
A2 | B4B2c2A2e2 | d6z4
B2 | d2c2B2A2E2F2 | G6z4

@@@ Tune index: 4463
